X:1
T:The Gay Gordons  "http://freespace.virgin.net/michael.clarke2/index.ht
M:C|
L:1/8
Q:80
C:J. Scott Skinner
S:Scottish Country Dance
K:HP
|: e | \
{gAGAG}A3/2B/2{gcd}c{g}B/4{d}A3/4 | \
{Gdc}d3/2e/2{gfg}f{g}e3/4d/4 | \
{gcd}c{ag}a{cd}c{g}B/2{d}A/2 |
{gcd}c{g}B{GdGe}B{gef}e | | \
{gAGAG}A3/2B/2{gcd}c{g}B/4{d}A3/4 | \
{Gdc}d3/2e/2{gfg}f{g}e/2d/4 |
{gcd}c{ag}a{ef}e3/4c/4{gde}d3/4B/4 | \
{gcd}c{e}A{GAG}A :: \
g |
{ag}af/2{gef}ed/4{g}c3/4 | \
{Gdc}d3/2e/2{gfg}f{g}e3/4d/4 | \
{gcd}c{ag}a{cd}c{g}B/2{d}A/2 |
{gcd}c{g}B{GdGe}B|1 {gf}g|1  | \
{ag}af/2{gef}ed/4{g}c3/4 | \
{Gdc}d3/2e/2{gfg}f{g}e3/4d/4 |
{gcd}c{ag}a{ef}e3/4c/4{gde}d3/4B/4 | \
{gcd}c{e}A{GAG}A:|2
{gef}e |
{gAGAG}A3/2B/2{gcd}c{g}B/2{d}A/2 | \
{Gdc}d3/2e/2{gfg}f{g}e3/4d/4 | \
{gcd}c{ag}a{ef}e3/4c/4{gde}d3/4B/4 |
{gcd}c{e}A{GAG}A|]
